X: 850
M: C|
L: 1/8
K: G
|:\
dcBA G2e2 | d4 g4 | dcBA G2B2 | A4 D4 |\
dcBA G2d2 | d2g2 f2g2 | edcB A3G | G8 :|
|:\
e2d2 ^c2B2 | A4 d^cde | fefg e3d | d6 ef |
g2d2 c2B2 | c6 d2 | edcB A2G2 | F4 G2B2 |\

